modules/stroke-7/icons/coffee.svg

<?xml version="1.0" encoding="utf-8"?>
<!-- Generated by IcoMoon.io -->
<!DOCTYPE svg PUBLIC "-//W3C//DTD SVG 1.1//EN" "http://www.w3.org/Graphics/SVG/1.1/DTD/svg11.dtd">
<svg version="1.1" xmlns="http://www.w3.org/2000/svg" xmlns:xlink="http://www.w3.org/1999/xlink" width="32" height="32" viewBox="0 0 32 32">
<g id="icomoon-ignore">
</g>
<path d="M23.97 19.732h4.292v-8.53h-24.524v7.997c0 5.594 4.535 10.129 10.129 10.129 5.414 0 9.824-4.251 10.102-9.596zM23.997 12.268h3.199v6.397h-3.199v-6.398zM13.867 28.262c-4.997 0-9.063-4.066-9.063-9.063v-6.931h18.126v6.931c0 4.998-4.066 9.063-9.063 9.063z" fill="#000000"></path>
<path d="M3.738 30.394h20.259v-1.066h-20.259z" fill="#000000"></path>
<path d="M9.069 3.205h1.066v4.798h-1.066v-4.798z" fill="#000000"></path>
<path d="M17.599 3.205h1.066v4.798h-1.066v-4.798z" fill="#000000"></path>
<path d="M13.334 1.606h1.066v6.398h-1.066v-6.397z" fill="#000000"></path>
</svg>

<svg xmlns="http://www.w3.org/2000/svg" width="32" height="32"><path d="M23.97 19.732h4.292v-8.53H3.738v7.997c0 5.594 4.535 10.129 10.129 10.129 5.414 0 9.824-4.251 10.102-9.596zm.027-7.464h3.199v6.397h-3.199v-6.398zm-10.13 15.994c-4.997 0-9.063-4.066-9.063-9.063v-6.931H22.93v6.931c0 4.998-4.066 9.063-9.063 9.063zM3.738 30.394h20.259v-1.066H3.738zM9.069 3.205h1.066v4.798H9.069V3.205zM17.599 3.205h1.066v4.798h-1.066V3.205zM13.334 1.606H14.4v6.398h-1.066V1.607z"/></svg>
